public/RightCloudBg.svg

<svg width='255' height='213' viewBox='0 0 255 213' fill='none' xmlns='http://www.w3.org/2000/svg'><g opacity='0.24'><path d='M0.555664 173.731C0.555664 144.968 21.179 110.747 46.7874 96.7202C56.4682 60.8555 82.6018 24.9833 113.414 8.72528C127.894 1.08432 141.312 -1.06977 152.506 1.38867L152.513 1.33404L174.689 6.30905C174.689 6.30905 188.667 23.9235 190.397 28.5139C195.261 25.1728 202.309 21.5854 207.179 22.4626L230.954 26.9948C230.954 26.9948 215.546 120.526 189.54 134.249C178.469 140.087 37.7809 211.757 37.7809 211.757L21.8498 206.562L21.9046 206.541C9.05775 203.911 0.555664 192.185 0.555664 173.731Z' fill='url(#paint0_linear_9_79077)'/><path d='M65.1 102.116C75.3405 66.2515 102.992 30.3792 135.592 14.1212C168.193 -2.13676 195.841 6.16138 206.085 31.8084C233.176 18.8133 255 31.2695 255 60.0313C255 89.1197 232.693 123.822 205.177 137.542C193.465 143.384 77.7179 201.105 66.0066 206.946C38.4919 220.667 16.1855 208.21 16.1855 179.125C16.1855 150.364 38.0056 116.143 65.1 102.116Z' fill='url(#paint1_linear_9_79077)'/></g><defs><linearGradient id='paint0_linear_9_79077' x1='183.723' y1='-106.302' x2='81.7378' y2='84.8032' gradientUnits='userSpaceOnUse'><stop stop-color='white'/><stop offset='1' stop-color='#B6D4FF'/></linearGradient><linearGradient id='paint1_linear_9_79077' x1='135.593' y1='5.76562' x2='135.593' y2='212.525' gradientUnits='userSpaceOnUse'><stop stop-color='white'/><stop offset='1' stop-color='#B6D4FF'/></linearGradient></defs></svg>

<svg xmlns="http://www.w3.org/2000/svg" width="255" height="213" fill="none" viewBox="0 0 255 213"><g opacity=".24"><path fill="url(#a)" d="M.556 173.731c0-28.763 20.623-62.984 46.231-77.01 9.681-35.866 35.815-71.738 66.627-87.996 14.48-7.64 27.898-9.795 39.092-7.336l.007-.055 22.176 4.975s13.978 17.615 15.708 22.205c4.864-3.341 11.912-6.929 16.782-6.051l23.775 4.532s-15.408 93.531-41.414 107.254c-11.071 5.838-151.76 77.508-151.76 77.508l-15.93-5.195.055-.021c-12.847-2.63-21.35-14.356-21.35-32.81"/><path fill="url(#b)" d="M65.1 102.116c10.24-35.865 37.892-71.737 70.492-87.995s60.249-7.96 70.493 17.687C233.176 18.813 255 31.27 255 60.031c0 29.089-22.307 63.791-49.823 77.511-11.712 5.842-127.46 63.563-139.17 69.404-27.515 13.721-49.821 1.264-49.821-27.821 0-28.761 21.82-62.982 48.914-77.009"/></g><defs><linearGradient id="a" x1="183.723" x2="81.738" y1="-106.302" y2="84.803" gradientUnits="userSpaceOnUse"><stop stop-color="#fff"/><stop offset="1" stop-color="#b6d4ff"/></linearGradient><linearGradient id="b" x1="135.593" x2="135.593" y1="5.766" y2="212.525" gradientUnits="userSpaceOnUse"><stop stop-color="#fff"/><stop offset="1" stop-color="#b6d4ff"/></linearGradient></defs></svg>
